X:1
T:Khvalitye imya Gospodie
T:Сергeй Рахманинов, 1910
T:Attributed to John Chrysostom, c. 349-407 AD
T:Достойно есть
T:Литургиа Святого Иоанна Златоуста , Op. 31, No. 13
T:Public Domain
T:Public Domain
T:Public Domain
T:Public Domain
C:Sergei Rakhmanninov
Z:Public Domain
%%score [ ( 1 2 ) ( 3 4 ) ( 5 6 ) 7 ]
L:1/8
Q:1/4=70
M:3/4
K:Ab
V:1 treble nm="Сопрано" snm="С"
V:2 treble 
V:3 treble nm="Альт" snm="А"
V:4 treble 
V:5 treble-8 nm="Тенор" snm="Т"
V:6 treble-8 
V:7 bass nm="Бас" snm="Б"
V:1
"^Девольно медленно. Нижно и тепло\nRather slowly. Gently and warmly" z2 | z6 | %2
 z2 z2!p!"^Do –  stoi    –   no      yest'           ya – ko      vo    i– stin – nu         bla–zhi   –   ti""^До – стой  –   но      есть            я – ко       во   и–стин–ну       бла-жи  –  ти"!<(! c2!<)! | %3
 (!tenuto!e3!>(! d) c2!>)! | e6 | e2!<(! e3 e!<)! |!>(! !tenuto!f3 e e2-!>)! | e!p!e !tenuto!d3 c | %8
"^Тя Бо     –   го– ро – ди-цу,                       при-сно-бла – жен   –   у  –  ю          и    пре–не–по   –   роч    –   ну –""^Tya Bo    –   go – ro – di–tsu,                       pri – sno–bla  –zhen  –    u  – yu          i     pre –ne–po    –  roch   –   nu –" c2!<(! d3 e!<)! | %9
 !tenuto!e3!>(! c c2-!>)! | c6 | A2!<(! B2 c2!<)! | (!tenuto!c3!>(! B) A2!>)! | G4 F2 | %14
 G2!<(! A2 B2!<)! | (!tenuto!B3 A) G2 | %16
"^–ю         и     Ма   –   терь  Бо     –     га       на–ше–го.          Чест –  ней-шу–ю      хе–ру–фим   и    слав  –""^–yu         i      Ma   –   ter'    Bo     –     ga       na–she–vo.         Chest –  nei–shu–yu   khe-ru– fim     i      slav   –" G4 G2 | %17
 (!tenuto!F2 G2) A2 | (!tenuto!G2 A2) B2 |!>(! !tenuto!A3 B c2-!>)! | c2!pp! (c2!<(! d2)!<)! | %21
!>(! !tenuto![ce]2 dc c2!>)! |!<(! cB!>(! !tenuto!c3 d!<)!!>)! | (!tenuto![ce]3 d c2) | %24
"^–ней-шу-ю      без    срав–не     –    ни–я          се      –    ра – фим,               без        ис  – тле   –    ни  – я""^–nei–shu-yu     bez    srav–nye    –    ni–ya          se      –    ra  –  fim,                 bez         is   – tle     –    ni   – ya"!<(! cB!>(! !tenuto!c2 cd!<)!!>)! | %25
!mf!"^немного ускоряя\na little faster"[Q:1/4=80]!<(! !tenuto![ce]4 [Bd]2!<)! | %26
!>(! !tenuto![Bd]3 [Ac]!<(! [Ac][Bd]!>)!!<)! | ([ce][df] [ce]2)!<(! [Bd]2!<)! | %28
!>(! ((!tenuto![Bd]4 [Ac]2))!>)! |!mf! (B2 c2)!<(! d2!<)! | (!tenuto!d2 cd) e2 | %31
 (!tenuto!e2 d2 [ce]2) | %32
"^замедляя\nslowing"[Q:1/4=70]"^Бо      –      га              Сло    –    ва    род–шу-ю,       су  –  щу– ю  Бо–го – ро – ди-цу,   Тя  ве–ли – ча   –   ем,""^Bo      –      ga              Slo      –    va    rod-shu-yu,       su-shchu-yu  Bo–go – ro  –  di-tsu,  Tya ve–li   –cha  –   em," ([df]2 [ce]!<(![df])[Q:1/4=65] [eg]2!<)! | %33
!f!"^В темп\nA tempo"[Q:1/4=80] !tenuto!a4 g2 | !tenuto!g3 f f2 | !tenuto!f2 ee ee | %36
!>(! !tenuto!e3 d d2!>)! |!mp! d2 c2 d2 | (c2 d2) c2 | %39
"^постепенно замедляя и \nослабляя звучность\ngradually slower & quieter""^Тя  ве–ли–ча     –     ем,        Тя                     ве      –      ли    –    ча   –  ем.""^Tya ve– li –cha   –     yem,     Tya                   ve      –       li      –   cha  – yem."!>(! c2 c2 c2!>)! | %40
[Q:1/4=70]!p! c4 B2 |!>(! A6!>)! |[Q:1/4=60]!pp! A4 G2 |[Q:1/4=50] A6 | !fermata!A6 |] %45
V:2
 x2 | x6 | x6 | x6 | x6 | x6 | x6 | x6 | x6 | x6 | x6 | x6 | x6 | x6 | x6 | x6 | x6 | x6 | x6 | %19
 x6 | x6 | x2 dc x2 | x6 | x6 | x6 | x6 | x6 | x6 | x6 | x6 | x6 | x6 | x6 | x6 | x6 | x6 | x6 | %37
 x6 | x6 | x6 | x6 | x6 | x6 | x6 | x6 |] %45
V:3
 z2 | z6 | z2 z2!p!!<(! A2!<)! | (!tenuto!c3!>(! G) A2!>)! | (B4 c2) | c2!<(! B2 A2!<)! | %6
!>(! !tenuto!d3 B c2!>)! |!p! F2 G2 A2 | (G3!<(! A) Bc!<)! | !tenuto!c2!>(! A2 A2-!>)! | A6 | %11
 C2!<(! D2 E2!<)! | (!tenuto!E2!>(! D2) C2!>)! | B,4 A,2 | B,2!<(! C2 D2!<)! | %15
 (!tenuto!D2 C2) B,2 | C4 B,2 | (!tenuto!A,2 B,2) C2 | (B,2 C2) D2 |!>(! !tenuto!C3 G A2-!>)! | %20
 A2!pp! (c2!<(! B2)!<)! |!>(! !tenuto!A2 BA A2!>)! |!<(! AG!>(! !tenuto![FA]3 B!<)!!>)! | %23
 (!tenuto!A3 B A2) |!<(! AG!>(! !tenuto![FA]2 AB!<)!!>)! |!mf! (([Ac]2 [GB]2)) [FA]2 | %26
!<(! [EG][FA] [GB][Ac] [Ac]2-!<)! | [Ac]2 [FA]2!<(! [GB]2!<)! |!>(! ([EG][FA] [GB]2 [Ac]2)!>)! | %29
!mf! (G2 =A2)!<(! B2!<)! | (!tenuto!B2 =AB) [Ac]2 | (!tenuto!c2 B2 A2) | ((G3!<(! A)) (3Bcd!<)! | %33
!f! ((!tenuto![Ace]2 [FAc]2)) [GBd]2 | !tenuto![Ace]2 [FAc]2 [GBd]2 | %35
 !tenuto![Ac]2 [CFA][CFA] [DGB][DGB] |!>(! !tenuto![EAc]2 [FA]2 [GB]2!>)! |!mp! B2 A2 B2 | %38
 (A2 B2) A2 |!>(! F2 E2 F2!>)! |!p! (E2 =D2) _D2 |!>(! C6!>)! |!pp! (B,C D3) B, | C6 | %44
 !fermata!C6 |] %45
V:4
 x2 | x6 | x6 | x6 | x6 | x6 | x6 | x6 | x6 | x6 | x6 | x6 | x6 | x6 | x6 | x6 | x6 | x6 | x6 | %19
 x6 | x6 | x6 | x6 | x6 | x2 x2 FB | x6 | x6 | x6 | x6 | x6 | x6 | x6 | G3 A B2 | x6 | x6 | x6 | %36
 x6 | x6 | x6 | x6 | x6 | x6 | x6 | x6 | x6 |] %45
V:5
!p!"^До – стой–но  есть""^Do –  stoi  – no  yest'"!<(! e2!<)! | f4!>(! e2!>)! | e6- | e6- | e6- | %5
 e6- | e6- | e6- | e4!p!"^До  –  стой – но   есть""^Do  –   stoi    – no   yest'"!<(! e2!<)! | %9
!>(! !tenuto!f4 e2!>)! | e6- | e6- | e6- | e6- | %14
 e4!p!"^До   –  стой  –  но""^Do   –   stoi    –  no" e2 | !tenuto!f4 e2 |"^есть.""^yest'." e6- | %17
 e6- | (e4 f2-) | f6- |!>(! f6!>)! | z6 | z6 | z6 | z6 | z6 | %26
 z2 z2!mf!"^До   –  стой   –  но    есть,      До –стой – но   есть,""^Do   –   stoi     –  no    yest',      Do  – stoi   – no   yest'"!<(! e2!<)! | %27
!>(! !tenuto!f4 e2!>)! | e4!mf!!<(! f2!<)! | !tenuto!g4!>(! f2!>)! | f6- | f6- | %32
 f4!f!"^До     –    стой    –   но   есть,                                                                                            Тя  ве–ли – ча  –   ем,""^Do     –     stoi      –    no   yest',                                                                                          Tya ve–li   –cha  –   em,"!<(! e2!<)! | %33
!>(! !tenuto!f4 e2!>)! | e6- | e6- | e6 |!mp! f2 e2 f2 | (e2 f2) e2 | %39
"^Тя  ве–ли–ча     –     ем,        Тя                     ве      –      ли    –    ча   –  ем.""^Tya ve– li –cha   –     yem,     Tya                   ve      –       li      –   cha  – yem."!>(! A2 G2 A2!>)! | %40
!p! (G2 F2) _F2 |!>(! z2 z2"^До – стой     –   но          есть." e2!>)! | %42
!pp!"^Do –  stoi       –   no          yest'." !tenuto!f4 e2 | e6- | !fermata!e6 |] %45
V:6
 x2 | x6 | x6 | x6 | x6 | x6 | x6 | x6 | x6 | x6 | x6 | x6 | x6 | x6 | x6 | x6 | x6 | x6 | x6 | %19
 x6 | x6 | x6 | x6 | x6 | x6 | x6 | x6 | x6 | x6 | x6 | x6 | x6 | x6 | x6 | x6 | x6 | x6 | x6 | %38
 x6 | x6 | x6 | E6 | E4 E2 | E6 | E6 |] %45
V:7
 z2 | z6 | z6 | z6 | z6 | z6 | z6 | z6 | z6 | z6 | %10
!p!"^при-сно-бла–жен    –    у –  ю            и     пре–не–по–роч     –     ну– ю              и""^pri – sno–bla –zhen   –   u  – yu            i       pre–ne –po–roch   –     nu– yu              i" E,2!<(! E,2 E,2!<)! | %11
!>(! !tenuto!F,4- F,E,!>)! | E,4 E,2 | D,2!<(! C,2 D,2!<)! |!>(! !tenuto!E,4- E,D,!>)! | %15
 !tenuto!D,4 D,2 | %16
"^Ма – терь Бо    –    га      на     –      ше –  го.""^Ma –  ter'   Bo    –    ga      na     –      she – vo." (C,2!<(! B,,2) C,2!<)! | %17
 !tenuto!D,4 C,2 |!>(! (C,3 A,,)!pp! F,,2!>)! | F,,6- | F,,2 z4 | z6 | z6 | z6 | z6 | z6 | z6 | %27
 z6 | z6 | z6 | z6 | z6 | z6 | %33
!p!"^су  – щу–ю           Бо   –  го  –  ро     –      ди–цу.""^su-shchu-yu          Bo   –  go  –  ro     –       di–tsu." [A,,E,]3 [A,,E,] [A,,E,]2- | %34
 [A,,E,]2 [A,,E,]3 [A,,E,] | [A,,E,A,]3 [A,,E,A,] [A,,E,A,]2- | [A,,E,A,]4 z2 | z6 | z6 | %39
!p! F,2 C,2 F,2 | (C,2 A,,2) D,2 |!>(! E,6!>)! |!pp! E,4 E,2 | A,,6 | !fermata!A,,6 |] %45

